X: 40087
T: Thunderhead
R: jig
M: 6/8
K: Bminor
~B3 fBB|eBB dBA|~B3 fgf|edB AGc|
~B3 fBB|eBB def|gfe fdB|ADF ABc:|
|:dGG AGE|DEG ~F3|EFF EFF|GFE~F3|dGG AGE|
DEG FGA|1 BdB ceg|f/g/af gfe:|2 Bde fgf|edB AGc||
~B3 fBBf|eBB dBBA|~B3 fggf|edB AGGc|
~B3 fBBf|eBB dBef|gfe fddB|1 ADF ABBc:|2 ADF ABc2||
|:dGG AGGE|DEG EF~F2|EFF EF~F2|GFE EF~F2|
dGG AGGE|DEG EF~F2|1 BdB ceeg|f/g/af g3e:|2 M:6/8 Bde fgf|M:7/8 edB AGGc||

